Dominus_Dark_Funeral/scalable/apps/bluefish.svg

<?xml version="1.0" encoding="UTF-8" standalone="no"?><svg xmlns:dc="http://purl.org/dc/elements/1.1/" xmlns:cc="http://creativecommons.org/ns#" xmlns:rdf="http://www.w3.org/1999/02/22-rdf-syntax-ns#" xmlns="http://www.w3.org/2000/svg" width="48" height="48" viewBox="0 0 12.7 12.7"><metadata><rdf:RDF><cc:Work><dc:format>image/svg+xml</dc:format><dc:type rdf:resource="http://purl.org/dc/dcmitype/StillImage"/><dc:title/></cc:Work></rdf:RDF></metadata><defs><linearGradient id="d"><stop offset="0" stop-color="#000005"/><stop offset="1" stop-color="#501616" stop-opacity="0"/></linearGradient><linearGradient id="a"><stop offset="0" stop-color="#fff"/><stop offset="1" stop-color="#fff" stop-opacity="0"/></linearGradient><linearGradient id="b"><stop offset="0" stop-color="#fff"/><stop offset="1" stop-color="#b1b1b1"/></linearGradient><linearGradient id="c"><stop offset="0" stop-color="#5e98d7"/><stop offset="1" stop-color="#3363ac"/></linearGradient></defs><path d="M6.35.1C4.81.1 3.57.38 2.66.96A3.67 3.67 0 0 0 1 4.22c0 1.91 1.54 4.47 2.01 5.2.54.85 1.13 1.61 1.65 2.16.68.7 1.21 1.03 1.69 1.03s1.01-.33 1.69-1.03a15.2 15.2 0 0 0 1.65-2.15c.47-.74 2-3.3 2-5.21 0-1.42-.57-2.54-1.65-3.25A6.75 6.75 0 0 0 6.35.1z" fill="#dbdbe3"/><path d="M4.59 5.16c-.02 0-.07.15-.1.33-.09.41-.6 2.39-.67 2.54-.04.12.17.55.55 1.13.1.15.16.3.13.34-.02.05-.01.07.02.04.03-.02.17.14.32.37.25.4.27.41.33.27.03-.08.07-.12.08-.08.02.03.02.02.02-.03-.02-.05.05-.28.13-.53.21-.59.37-1.08.45-1.39.04-.14.08-.24.1-.23.01 0 .03-.08.04-.2 0-.14-.02-.23-.04-.21-.03.01-.1-.06-.14-.16l-.27-.48c-.36-.58-.57-1.02-.54-1.1.03-.04.02-.05-.02-.02-.03.02-.12-.09-.2-.28-.08-.17-.16-.31-.19-.31z" fill="teal"/><path d="M7.12 4.38c-.01 0-.02 0-.03.02l-.03.2c-.08.64-.2 1.34-.38 2.08l-.2.86.12.16c.14.19.15.3.03.35-.04.03-.08.08-.08.12 0 .05.05.04.11-.04.1-.12.11-.12.27.11a5.06 5.06 0 0 1 .52.81c.04-.03.25.26.25.35 0 .06.02.09.04.06.03-.02.07 0 .1.04 0 .03.05.07.07.07.06 0 .4-1.2.58-2.07l.14-.68-.11-.15c-.12-.16-.15-.3-.06-.22.03.02.04 0 .01-.07-.02-.07-.04-.09-.07-.03-.02.05-.06.04-.11-.04-.07-.12-.07-.12 0-.07a4.2 4.2 0 0 1-.58-.85 8.6 8.6 0 0 0-.29-.51 1.46 1.46 0 0 1-.13-.27c-.07-.14-.13-.22-.17-.23z" fill="#08a"/><path d="M6.6.1l-.25.01c-.35.01-.5.04-.5.1 0 .05.07.3.17.54.09.26.16.5.16.56 0 .05 0 .07.04.05.03-.03.07.02.1.1 0 .1.13.39.25.65.22.46.22.48.26.3.06-.32.12-2.12.07-2.22C6.87.13 6.8.1 6.6.1z" fill="#87decd"/><path d="M7.98.22a6.75 6.75 0 0 0-.49-.08 6.75 6.75 0 0 0-.04 0 .13.13 0 0 0-.05.09c-.01.08-.04.63-.05 1.22-.02.6-.06 1.3-.09 1.56-.05.44-.04.49.08.73l.2.37c.05.06.13.2.19.32l.13.24.38.63.4.64c.04.04.04.08-.02.13-.05.04-.05.07-.01.07.12 0 .21-.2.25-.55.02-.2.06-.37.09-.4.03-.02.04-.08.01-.14a.48.48 0 0 1 .02-.23c.02-.06.04-.24.06-.4l.09-.94.07-.66-.17-.3C8.7 1.92 8.01.42 7.98.22z" fill="#3771c8"/><path d="M9.27.6a6.75 6.75 0 0 0-.46-.17 6.75 6.75 0 0 0-.26-.08c.07.23.48 1.16.59 1.34.04.08.1.13.1.1.03-.03.03-.72.03-1.19z" fill="#164450"/><path d="M11.62 3.54c-.02-.1-.01-.23-.04-.33a3.74 3.74 0 0 0-.83-1.63c-.2-.23-.44-.43-.71-.61a6.75 6.75 0 0 0-.3-.15c-.02.6-.04 1.36-.06 1.53-.03.34-.05.3.34.98.08.14.08.17 0 .28a.43.43 0 0 0-.1.2c0 .03.06-.02.12-.12.08-.14.12-.15.17-.09.08.1-.04.33-.14.25-.03-.02 0 .04.07.14.14.2.22.24.22.13 0-.04-.04-.1-.11-.11-.09-.04-.1-.07-.04-.15.06-.1.18-.06.12.05-.01.03 0 .05.02.05.03-.02.25.28.5.64.24.36.47.67.49.69.06.02.1-.19.2-1.25.03-.26.05-.32.08-.5z" fill="#216778"/><path d="M10.32 8.26c.2-.35.34-.55.55-1 .12-.26.2-.55.3-.82l.08-.41a6.55 6.55 0 0 0-.37-.53c-.28-.38-.58-.82-.89-1.31-.24-.4-.35-.55-.39-.54v.01c-.03.04-.06.27-.07.52l-.06.56-.05.3c-.05.27-.14.24-.12-.04.02-.2.02-.2-.02-.05-.03.1-.05.25-.05.35 0 .14 0 .15.04.07.09-.16.08.13-.03.7a2.7 2.7 0 0 0-.05.65c.01.08.36.58.77 1.1.2.25.26.3.36.44z" fill="#08a"/><path d="M8.7 10.72c.34-.42.67-.79.99-1.29.08-.12.26-.5.38-.7l-.63-.79c-.25-.33-.4-.48-.46-.49l-.03.01c-.03.04-.06.1-.03.13.02.07-.2.99-.52 2.1l-.13.44.24.28c.12.13.17.24.2.3z" fill="#37c8ab"/><path d="M7.66 11.9c.13-.11.24-.18.38-.32.13-.14.28-.37.41-.54-.06-.06-.05 0-.22-.2l-.14-.16-.1.26c-.04.15-.13.4-.19.55l-.14.41z" fill="#008066"/><path d="M6.7 12.5c.1-.03.19-.05.29-.1 0-.03.12-.38.28-.8l.38-1.08.1-.33-.16-.2c-.09-.1-.4-.53-.69-.95-.3-.43-.55-.78-.57-.79-.02 0-.06.06-.1.16-.03.1-.06.23-.06.29 0 .06-.03.08-.06.05-.04-.02-.05-.02-.03.03.04.08-.1.55-.43 1.47l-.19.57c0 .04.3.47.68.95.3.4.46.61.56.72z" fill="#2ca089"/><path d="M5 11.86c.2.18.4.39.58.5.21.13.4.16.59.19l-.08-.13c.03-.04.02-.06-.01-.04-.03.03-.24-.19-.45-.47l-.4-.53c-.02 0-.13.25-.23.48z" fill="#217867"/><path d="M3.22 9.7a15 15 0 0 0 1.4 1.84l.2-.4c.1-.23.1-.23-.07-.46-.08-.12-.14-.25-.13-.28.01-.03 0-.08-.03-.1-.05-.04-.05-.03-.03.02.09.18-.02.07-.14-.13-.13-.25-.16-.47-.08-.62.05-.1.05-.1-.03-.02a.28.28 0 0 0-.07.21c.02.08 0 .05-.09-.06a46.5 46.5 0 0 1-.53-.83c-.04 0-.13.16-.3.6l-.1.23z" fill="#00aad4"/><path d="M1.7 6.9l.13.36c.4.86.79 1.5 1.05 1.92.13-.35.27-.6.32-.8.1-.36.1-.37.02-.31-.05.03-.05.01-.02-.09.02-.07.02-.1 0-.08-.06.08-.49-.68-.98-1.75l-.17-.37-.07.2-.1.3c0 .05-.03.16-.06.24l-.13.39z" fill="#006680"/><path d="M1.07 3.3a3.67 3.67 0 0 0 0 .03A3.67 3.67 0 0 0 1 3.7a3.67 3.67 0 0 0-.01.37 3.67 3.67 0 0 0 0 .16c0 .48.1 1 .25 1.52.04.14.11.28.16.42.12-.44.3-.97.3-1.05 0-.05-.22-.66-.5-1.36-.1-.25-.07-.25-.14-.44z" fill="#5df"/><path d="M2.24 1.29a3.67 3.67 0 0 0-.15.13 3.67 3.67 0 0 0-.25.27 3.67 3.67 0 0 0-.22.3 3.67 3.67 0 0 0-.19.3 3.67 3.67 0 0 0-.13.3l.04.12c.4 1.1.54 1.48.56 1.46l.13-.76c.09-.64.14-1.03.2-1.68V1.3z" fill="#216778"/><path d="M2.85.86l-.13.07-.03.22c-.02.77-.16 2.12-.28 2.79a3.6 3.6 0 0 0-.1 1.29 15.24 15.24 0 0 1 .9 2c.03-.02.1.04.16.14.07.15.1.17.14.1.07-.16.51-1.94.62-2.54l.1-.55-.22-.53c-.11-.3-.22-.56-.24-.58-.1-.13-.28-.7-.24-.77.03-.05.02-.07-.02-.04-.03.03-.11-.12-.2-.36a8.28 8.28 0 0 0-.2-.53c-.02-.07-.03-.16-.01-.2.02-.04.01-.06-.02-.04-.03.03-.1-.12-.17-.33L2.85.86z" fill="#2ca089"/><path d="M4.55.28c-.09.02-.2.01-.28.03-.3.07-.6.16-.87.27L3.3.64c.01.04 0 .04.03.1a27.64 27.64 0 0 1 .44 1.25c.04.09.06.2.04.24-.03.05-.02.06.01.04.03-.02.15.21.27.51.11.31.23.56.24.56.08 0 .2-1.4.22-2.52z" fill="#006680"/><path d="M5.35.2l-.33.04-.02.8c-.03.88-.09 1.63-.22 2.58-.09.65-.09.65.56 1.89.75 1.43.83 1.57.84 1.46 0-.11 0-.1.15-.87.17-.83.38-2.2.38-2.42 0-.12-.04-.3-.1-.4l-.22-.45-.23-.52A23.48 23.48 0 0 1 5.38.38C5.35.31 5.35.26 5.35.2z" fill="#2c5aa0"/><path d="M1.04 3.9c0 .1-.04.2-.04.32 0 1.91 1.54 4.47 2.01 5.2.54.85 1.13 1.61 1.65 2.16.68.7 1.21 1.03 1.69 1.03s1.01-.33 1.69-1.03a15.2 15.2 0 0 0 1.65-2.15c.47-.74 2-3.3 2-5.21 0-.11-.02-.21-.03-.32a5.5 5.5 0 0 1-.21 1.3c-.15.53-.36 1.05-.58 1.53-.44.97-.95 1.8-1.18 2.17a15.2 15.2 0 0 1-1.65 2.15 4.9 4.9 0 0 1-.92.78c-.28.17-.53.25-.77.25s-.5-.08-.77-.25a4.76 4.76 0 0 1-.92-.78A14.41 14.41 0 0 1 3.01 8.9a19.2 19.2 0 0 1-1.18-2.17c-.22-.48-.43-1-.58-1.52a5.66 5.66 0 0 1-.21-1.31z" opacity=".5"/></svg>

<?xml version="1.0" encoding="UTF-8" standalone="no"?>
<svg
   xmlns:dc="http://purl.org/dc/elements/1.1/"
   xmlns:cc="http://creativecommons.org/ns#"
   xmlns:rdf="http://www.w3.org/1999/02/22-rdf-syntax-ns#"
   xmlns:svg="http://www.w3.org/2000/svg"
   xmlns="http://www.w3.org/2000/svg"
   xmlns:sodipodi="http://sodipodi.sourceforge.net/DTD/sodipodi-0.dtd"
   xmlns:inkscape="http://www.inkscape.org/namespaces/inkscape"
   width="48"
   height="48"
   viewBox="0 0 12.7 12.7"
   version="1.1"
   id="svg66"
   sodipodi:docname="bluefish.svg"
   inkscape:version="0.92.4 (5da689c313, 2019-01-14)">
  <sodipodi:namedview
     pagecolor="#ffffff"
     bordercolor="#666666"
     borderopacity="1"
     objecttolerance="10"
     gridtolerance="10"
     guidetolerance="10"
     inkscape:pageopacity="0"
     inkscape:pageshadow="2"
     inkscape:window-width="1112"
     inkscape:window-height="480"
     id="namedview68"
     showgrid="false"
     inkscape:zoom="4.9166667"
     inkscape:cx="2.1355932"
     inkscape:cy="24"
     inkscape:window-x="0"
     inkscape:window-y="25"
     inkscape:window-maximized="0"
     inkscape:current-layer="svg66" />
  <metadata
     id="metadata2">
    <rdf:RDF>
      <cc:Work>
        <dc:format>image/svg+xml</dc:format>
        <dc:type
           rdf:resource="http://purl.org/dc/dcmitype/StillImage" />
        <dc:title></dc:title>
      </cc:Work>
    </rdf:RDF>
  </metadata>
  <defs
     id="defs24">
    <linearGradient
       id="d">
      <stop
         offset="0"
         stop-color="#000005"
         id="stop4" />
      <stop
         offset="1"
         stop-color="#501616"
         stop-opacity="0"
         id="stop6" />
    </linearGradient>
    <linearGradient
       id="a">
      <stop
         offset="0"
         stop-color="#fff"
         id="stop9" />
      <stop
         offset="1"
         stop-color="#fff"
         stop-opacity="0"
         id="stop11" />
    </linearGradient>
    <linearGradient
       id="b">
      <stop
         offset="0"
         stop-color="#fff"
         id="stop14" />
      <stop
         offset="1"
         stop-color="#b1b1b1"
         id="stop16" />
    </linearGradient>
    <linearGradient
       id="c">
      <stop
         offset="0"
         stop-color="#5e98d7"
         id="stop19" />
      <stop
         offset="1"
         stop-color="#3363ac"
         id="stop21" />
    </linearGradient>
  </defs>
  <path
     d="M 6.35,0.1 C 4.81,0.1 3.57,0.38 2.66,0.96 A 3.67,3.67 0 0 0 1,4.22 c 0,1.91 1.54,4.47 2.01,5.2 0.54,0.85 1.13,1.61 1.65,2.16 0.68,0.7 1.21,1.03 1.69,1.03 0.48,0 1.01,-0.33 1.69,-1.03 A 15.2,15.2 0 0 0 9.69,9.43 c 0.47,-0.74 2,-3.3 2,-5.21 0,-1.42 -0.57,-2.54 -1.65,-3.25 A 6.75,6.75 0 0 0 6.35,0.1 Z"
     id="path26"
     inkscape:connector-curvature="0"
     style="fill:#dbdbe3" />
  <path
     d="M 4.59,5.16 C 4.57,5.16 4.52,5.31 4.49,5.49 4.4,5.9 3.89,7.88 3.82,8.03 3.78,8.15 3.99,8.58 4.37,9.16 4.47,9.31 4.53,9.46 4.5,9.5 4.48,9.55 4.49,9.57 4.52,9.54 4.55,9.52 4.69,9.68 4.84,9.91 5.09,10.31 5.11,10.32 5.17,10.18 5.2,10.1 5.24,10.06 5.25,10.1 5.27,10.13 5.27,10.12 5.27,10.07 5.25,10.02 5.32,9.79 5.4,9.54 5.61,8.95 5.77,8.46 5.85,8.15 5.89,8.01 5.93,7.91 5.95,7.92 5.96,7.92 5.98,7.84 5.99,7.72 5.99,7.58 5.97,7.49 5.95,7.51 5.92,7.52 5.85,7.45 5.81,7.35 L 5.54,6.87 C 5.18,6.29 4.97,5.85 5,5.77 5.03,5.73 5.02,5.72 4.98,5.75 4.95,5.77 4.86,5.66 4.78,5.47 4.7,5.3 4.62,5.16 4.59,5.16 Z"
     id="path28"
     inkscape:connector-curvature="0"
     style="fill:#008080" />
  <path
     d="m 7.12,4.38 c -0.01,0 -0.02,0 -0.03,0.02 L 7.06,4.6 C 6.98,5.24 6.86,5.94 6.68,6.68 L 6.48,7.54 6.6,7.7 C 6.74,7.89 6.75,8 6.63,8.05 6.59,8.08 6.55,8.13 6.55,8.17 6.55,8.22 6.6,8.21 6.66,8.13 6.76,8.01 6.77,8.01 6.93,8.24 A 5.06,5.06 0 0 1 7.45,9.05 C 7.49,9.02 7.7,9.31 7.7,9.4 c 0,0.06 0.02,0.09 0.04,0.06 0.03,-0.02 0.07,0 0.1,0.04 0,0.03 0.05,0.07 0.07,0.07 0.06,0 0.4,-1.2 0.58,-2.07 L 8.63,6.82 8.52,6.67 C 8.4,6.51 8.37,6.37 8.46,6.45 8.49,6.47 8.5,6.45 8.47,6.38 8.45,6.31 8.43,6.29 8.4,6.35 8.38,6.4 8.34,6.39 8.29,6.31 8.22,6.19 8.22,6.19 8.29,6.24 A 4.2,4.2 0 0 1 7.71,5.39 8.6,8.6 0 0 0 7.42,4.88 1.46,1.46 0 0 1 7.29,4.61 C 7.22,4.47 7.16,4.39 7.12,4.38 Z"
     id="path30"
     inkscape:connector-curvature="0"
     style="fill:#0088aa" />
  <path
     d="M 6.6,0.1 6.35,0.11 C 6,0.12 5.85,0.15 5.85,0.21 c 0,0.05 0.07,0.3 0.17,0.54 0.09,0.26 0.16,0.5 0.16,0.56 0,0.05 0,0.07 0.04,0.05 0.03,-0.03 0.07,0.02 0.1,0.1 0,0.1 0.13,0.39 0.25,0.65 0.22,0.46 0.22,0.48 0.26,0.3 C 6.89,2.09 6.95,0.29 6.9,0.19 6.87,0.13 6.8,0.1 6.6,0.1 Z"
     id="path32"
     inkscape:connector-curvature="0"
     style="fill:#87decd" />
  <path
     d="M 7.98,0.22 A 6.75,6.75 0 0 0 7.49,0.14 6.75,6.75 0 0 0 7.45,0.14 0.13,0.13 0 0 0 7.4,0.23 C 7.39,0.31 7.36,0.86 7.35,1.45 7.33,2.05 7.29,2.75 7.26,3.01 7.21,3.45 7.22,3.5 7.34,3.74 l 0.2,0.37 c 0.05,0.06 0.13,0.2 0.19,0.32 L 7.86,4.67 8.24,5.3 8.64,5.94 C 8.68,5.98 8.68,6.02 8.62,6.07 8.57,6.11 8.57,6.14 8.61,6.14 8.73,6.14 8.82,5.94 8.86,5.59 8.88,5.39 8.92,5.22 8.95,5.19 8.98,5.17 8.99,5.11 8.96,5.05 A 0.48,0.48 0 0 1 8.98,4.82 C 9,4.76 9.02,4.58 9.04,4.42 L 9.13,3.48 9.2,2.82 9.03,2.52 C 8.7,1.92 8.01,0.42 7.98,0.22 Z"
     id="path34"
     inkscape:connector-curvature="0"
     style="fill:#3771c8" />
  <path
     d="M 9.27,0.6 A 6.75,6.75 0 0 0 8.81,0.43 6.75,6.75 0 0 0 8.55,0.35 c 0.07,0.23 0.48,1.16 0.59,1.34 0.04,0.08 0.1,0.13 0.1,0.1 C 9.27,1.76 9.27,1.07 9.27,0.6 Z"
     id="path36"
     inkscape:connector-curvature="0"
     style="fill:#164450" />
  <path
     d="M 11.62,3.54 C 11.6,3.44 11.61,3.31 11.58,3.21 A 3.74,3.74 0 0 0 10.75,1.58 C 10.55,1.35 10.31,1.15 10.04,0.97 A 6.75,6.75 0 0 0 9.74,0.82 C 9.72,1.42 9.7,2.18 9.68,2.35 c -0.03,0.34 -0.05,0.3 0.34,0.98 0.08,0.14 0.08,0.17 0,0.28 a 0.43,0.43 0 0 0 -0.1,0.2 c 0,0.03 0.06,-0.02 0.12,-0.12 0.08,-0.14 0.12,-0.15 0.17,-0.09 0.08,0.1 -0.04,0.33 -0.14,0.25 -0.03,-0.02 0,0.04 0.07,0.14 0.14,0.2 0.22,0.24 0.22,0.13 0,-0.04 -0.04,-0.1 -0.11,-0.11 -0.09,-0.04 -0.1,-0.07 -0.04,-0.15 0.06,-0.1 0.18,-0.06 0.12,0.05 -0.01,0.03 0,0.05 0.02,0.05 0.03,-0.02 0.25,0.28 0.5,0.64 0.24,0.36 0.47,0.67 0.49,0.69 0.06,0.02 0.1,-0.19 0.2,-1.25 0.03,-0.26 0.05,-0.32 0.08,-0.5 z"
     id="path38"
     inkscape:connector-curvature="0"
     style="fill:#216778" />
  <path
     d="m 10.32,8.26 c 0.2,-0.35 0.34,-0.55 0.55,-1 0.12,-0.26 0.2,-0.55 0.3,-0.82 L 11.25,6.03 A 6.55,6.55 0 0 0 10.88,5.5 C 10.6,5.12 10.3,4.68 9.99,4.19 9.75,3.79 9.64,3.64 9.6,3.65 V 3.66 C 9.57,3.7 9.54,3.93 9.53,4.18 L 9.47,4.74 9.42,5.04 C 9.37,5.31 9.28,5.28 9.3,5 9.32,4.8 9.32,4.8 9.28,4.95 9.25,5.05 9.23,5.2 9.23,5.3 c 0,0.14 0,0.15 0.04,0.07 C 9.36,5.21 9.35,5.5 9.24,6.07 A 2.7,2.7 0 0 0 9.19,6.72 c 0.01,0.08 0.36,0.58 0.77,1.1 0.2,0.25 0.26,0.3 0.36,0.44 z"
     id="path40"
     inkscape:connector-curvature="0"
     style="fill:#0088aa" />
  <path
     d="M 8.7,10.72 C 9.04,10.3 9.37,9.93 9.69,9.43 9.77,9.31 9.95,8.93 10.07,8.73 L 9.44,7.94 C 9.19,7.61 9.04,7.46 8.98,7.45 L 8.95,7.46 C 8.92,7.5 8.89,7.56 8.92,7.59 8.94,7.66 8.72,8.58 8.4,9.69 l -0.13,0.44 0.24,0.28 c 0.12,0.13 0.17,0.24 0.2,0.3 z"
     id="path42"
     inkscape:connector-curvature="0"
     style="fill:#37c8ab" />
  <path
     d="M 7.66,11.9 C 7.79,11.79 7.9,11.72 8.04,11.58 8.17,11.44 8.32,11.21 8.45,11.04 8.39,10.98 8.4,11.04 8.23,10.84 L 8.09,10.68 7.99,10.94 C 7.95,11.09 7.86,11.34 7.8,11.49 Z"
     id="path44"
     inkscape:connector-curvature="0"
     style="fill:#008066" />
  <path
     d="m 6.7,12.5 c 0.1,-0.03 0.19,-0.05 0.29,-0.1 0,-0.03 0.12,-0.38 0.28,-0.8 L 7.65,10.52 7.75,10.19 7.59,9.99 C 7.5,9.89 7.19,9.46 6.9,9.04 6.6,8.61 6.35,8.26 6.33,8.25 6.31,8.25 6.27,8.31 6.23,8.41 6.2,8.51 6.17,8.64 6.17,8.7 6.17,8.76 6.14,8.78 6.11,8.75 6.07,8.73 6.06,8.73 6.08,8.78 6.12,8.86 5.98,9.33 5.65,10.25 l -0.19,0.57 c 0,0.04 0.3,0.47 0.68,0.95 0.3,0.4 0.46,0.61 0.56,0.72 z"
     id="path46"
     inkscape:connector-curvature="0"
     style="fill:#2ca089" />
  <path
     d="m 5,11.86 c 0.2,0.18 0.4,0.39 0.58,0.5 0.21,0.13 0.4,0.16 0.59,0.19 L 6.09,12.42 C 6.12,12.38 6.11,12.36 6.08,12.38 6.05,12.41 5.84,12.19 5.63,11.91 L 5.23,11.38 C 5.21,11.38 5.1,11.63 5,11.86 Z"
     id="path48"
     inkscape:connector-curvature="0"
     style="fill:#217867" />
  <path
     d="m 3.22,9.7 a 15,15 0 0 0 1.4,1.84 l 0.2,-0.4 C 4.92,10.91 4.92,10.91 4.75,10.68 4.67,10.56 4.61,10.43 4.62,10.4 4.63,10.37 4.62,10.32 4.59,10.3 4.54,10.26 4.54,10.27 4.56,10.32 4.65,10.5 4.54,10.39 4.42,10.19 4.29,9.94 4.26,9.72 4.34,9.57 4.39,9.47 4.39,9.47 4.31,9.55 A 0.28,0.28 0 0 0 4.24,9.76 C 4.26,9.84 4.24,9.81 4.15,9.7 A 46.5,46.5 0 0 1 3.62,8.87 c -0.04,0 -0.13,0.16 -0.3,0.6 z"
     id="path50"
     inkscape:connector-curvature="0"
     style="fill:#00aad4" />
  <path
     d="M 1.7,6.9 1.83,7.26 C 2.23,8.12 2.62,8.76 2.88,9.18 3.01,8.83 3.15,8.58 3.2,8.38 3.3,8.02 3.3,8.01 3.22,8.07 3.17,8.1 3.17,8.08 3.2,7.98 3.22,7.91 3.22,7.88 3.2,7.9 3.14,7.98 2.71,7.22 2.22,6.15 L 2.05,5.78 1.98,5.98 1.88,6.28 c 0,0.05 -0.03,0.16 -0.06,0.24 L 1.69,6.91 Z"
     id="path52"
     inkscape:connector-curvature="0"
     style="fill:#006680" />
  <path
     d="m 1.07,3.3 a 3.67,3.67 0 0 0 0,0.03 A 3.67,3.67 0 0 0 1,3.7 3.67,3.67 0 0 0 0.99,4.07 a 3.67,3.67 0 0 0 0,0.16 c 0,0.48 0.1,1 0.25,1.52 C 1.28,5.89 1.35,6.03 1.4,6.17 1.52,5.73 1.7,5.2 1.7,5.12 1.7,5.07 1.48,4.46 1.2,3.76 1.1,3.51 1.13,3.51 1.06,3.32 Z"
     id="path54"
     inkscape:connector-curvature="0"
     style="fill:#55ddff" />
  <path
     d="M 2.24,1.29 A 3.67,3.67 0 0 0 2.09,1.42 3.67,3.67 0 0 0 1.84,1.69 3.67,3.67 0 0 0 1.62,1.99 3.67,3.67 0 0 0 1.43,2.29 3.67,3.67 0 0 0 1.3,2.59 l 0.04,0.12 c 0.4,1.1 0.54,1.48 0.56,1.46 L 2.03,3.41 C 2.12,2.77 2.17,2.38 2.23,1.73 V 1.3 Z"
     id="path56"
     inkscape:connector-curvature="0"
     style="fill:#216778" />
  <path
     d="M 2.85,0.86 2.72,0.93 2.69,1.15 C 2.67,1.92 2.53,3.27 2.41,3.94 a 3.6,3.6 0 0 0 -0.1,1.29 15.24,15.24 0 0 1 0.9,2 C 3.24,7.21 3.31,7.27 3.37,7.37 3.44,7.52 3.47,7.54 3.51,7.47 3.58,7.31 4.02,5.53 4.13,4.93 L 4.23,4.38 4.01,3.85 C 3.9,3.55 3.79,3.29 3.77,3.27 3.67,3.14 3.49,2.57 3.53,2.5 3.56,2.45 3.55,2.43 3.51,2.46 3.48,2.49 3.4,2.34 3.31,2.1 A 8.28,8.28 0 0 0 3.11,1.57 C 3.09,1.5 3.08,1.41 3.1,1.37 3.12,1.33 3.11,1.31 3.08,1.33 3.05,1.36 2.98,1.21 2.91,1 Z"
     id="path58"
     inkscape:connector-curvature="0"
     style="fill:#2ca089" />
  <path
     d="M 4.55,0.28 C 4.46,0.3 4.35,0.29 4.27,0.31 3.97,0.38 3.67,0.47 3.4,0.58 L 3.3,0.64 c 0.01,0.04 0,0.04 0.03,0.1 A 27.64,27.64 0 0 1 3.77,1.99 C 3.81,2.08 3.83,2.19 3.81,2.23 3.78,2.28 3.79,2.29 3.82,2.27 3.85,2.25 3.97,2.48 4.09,2.78 4.2,3.09 4.32,3.34 4.33,3.34 c 0.08,0 0.2,-1.4 0.22,-2.52 z"
     id="path60"
     inkscape:connector-curvature="0"
     style="fill:#006680" />
  <path
     d="M 5.35,0.2 5.02,0.24 5,1.04 C 4.97,1.92 4.91,2.67 4.78,3.62 4.69,4.27 4.69,4.27 5.34,5.51 6.09,6.94 6.17,7.08 6.18,6.97 6.18,6.86 6.18,6.87 6.33,6.1 6.5,5.27 6.71,3.9 6.71,3.68 6.71,3.56 6.67,3.38 6.61,3.28 L 6.39,2.83 6.16,2.31 A 23.48,23.48 0 0 1 5.38,0.38 C 5.35,0.31 5.35,0.26 5.35,0.2 Z"
     id="path62"
     inkscape:connector-curvature="0"
     style="fill:#2c5aa0" />
  <path
     d="M 1.04,3.9 C 1.04,4 1,4.1 1,4.22 c 0,1.91 1.54,4.47 2.01,5.2 0.54,0.85 1.13,1.61 1.65,2.16 0.68,0.7 1.21,1.03 1.69,1.03 0.48,0 1.01,-0.33 1.69,-1.03 A 15.2,15.2 0 0 0 9.69,9.43 c 0.47,-0.74 2,-3.3 2,-5.21 0,-0.11 -0.02,-0.21 -0.03,-0.32 A 5.5,5.5 0 0 1 11.45,5.2 C 11.3,5.73 11.09,6.25 10.87,6.73 10.43,7.7 9.92,8.53 9.69,8.9 A 15.2,15.2 0 0 1 8.04,11.05 4.9,4.9 0 0 1 7.12,11.83 C 6.84,12 6.59,12.08 6.35,12.08 6.11,12.08 5.85,12 5.58,11.83 A 4.76,4.76 0 0 1 4.66,11.05 14.41,14.41 0 0 1 3.01,8.9 19.2,19.2 0 0 1 1.83,6.73 C 1.61,6.25 1.4,5.73 1.25,5.21 A 5.66,5.66 0 0 1 1.04,3.9 Z"
     id="path64"
     inkscape:connector-curvature="0"
     style="opacity:0.5" />
</svg>
